svg/u1f610.svg

<svg viewBox="0 0 128 128" xmlns="http://www.w3.org/2000/svg">
  <g id="gold">
    <radialGradient id="face_1_" cx="63.6" cy="2584.8999" gradientTransform="matrix(1 0 0 1 0 -2522)" gradientUnits="userSpaceOnUse" r="56.9597">
      <stop offset="0.5" stop-color="#FDE030"/>
      <stop offset="0.92" stop-color="#F7C02B"/>
      <stop offset="1" stop-color="#F4A223"/>
    </radialGradient>
    <path id="face" d="M63.6,118.8c-27.9,0-58-17.5-58-55.9S35.7,7,63.6,7c15.5,0,29.8,5.1,40.4,14.4 c11.5,10.2,17.6,24.6,17.6,41.5s-6.1,31.2-17.6,41.4C93.4,113.6,79,118.8,63.6,118.8z" fill="url(#face_1_)"/>
    <path d="M111.49,29.67c5.33,8.6,8.11,18.84,8.11,30.23c0,16.9-6.1,31.2-17.6,41.4 c-10.6,9.3-25,14.5-40.4,14.5c-18.06,0-37-7.35-48.18-22.94c10.76,17.66,31,25.94,50.18,25.94c15.4,0,29.8-5.2,40.4-14.5 c11.5-10.2,17.6-24.5,17.6-41.4C121.6,50.16,118.13,38.84,111.49,29.67z" fill="#EB8F00"/>
  </g>
  <g id="facial_expressions">
    <g id="neutral-face">
      <path id="mouth" d="M89,88H39c-2.21,0-4-1.79-4-4s1.79-4,4-4h50c2.21,0,4,1.79,4,4S91.21,88,89,88z" fill="#422B0D"/>
    </g>
    <path d="M44.67,45.94L44.67,45.94c-4.19,0-8,3.54-8,9.42s3.81,9.41,8,9.41l0,0c4.19,0,8-3.54,8-9.41 S48.86,45.94,44.67,45.94z" fill="#422B0D"/>
    <g id="peepers">
      <path d="M44.28,49.87L44.28,49.87c-1.42-0.68-3.13-0.08-3.82,1.34c-0.53,1.11-0.29,2.44,0.6,3.3l0,0 c1.42,0.68,3.13,0.08,3.82-1.34C45.41,52.06,45.17,50.73,44.28,49.87z" fill="#896024"/>
    </g>
    <path d="M83,45.94L83,45.94c-4.19,0-8,3.54-8,9.42s3.81,9.41,8,9.41l0,0c4.19,0,8-3.54,8-9.41 S87.21,45.94,83,45.94z" fill="#422B0D"/>
    <g id="peepers-2">
      <path d="M82.63,49.87L82.63,49.87c-1.42-0.68-3.13-0.08-3.82,1.34c-0.53,1.11-0.29,2.44,0.6,3.3l0,0 c1.42,0.68,3.13,0.08,3.82-1.34C83.76,52.06,83.52,50.73,82.63,49.87z" fill="#896024"/>
    </g>
  </g>
</svg>

<svg viewBox="0 0 128 128" xmlns="http://www.w3.org/2000/svg">
  <defs>
    <radialGradient id="face_1_" cx="63.6" cy="62.8999" gradientUnits="userSpaceOnUse" r="56.9597">
      <stop offset="0.5" stop-color="#FDE030"/>
      <stop offset="0.92" stop-color="#F7C02B"/>
      <stop offset="1" stop-color="#F4A223"/>
    </radialGradient>
  </defs>
  <path id="face" d="M63.6,118.8 C35.7,118.8 5.6,101.3 5.6,62.9 C5.6,24.5 35.7,7 63.6,7 C79.1,7 93.4,12.1 104,21.4 C115.5,31.6 121.6,46 121.6,62.9 C121.6,79.8 115.5,94.1 104,104.3 C93.4,113.6 79,118.8 63.6,118.8 Z" fill="url(#face_1_)"/>
  <path d="M111.49,29.67 C116.82,38.27 119.6,48.51 119.6,59.9 C119.6,76.8 113.5,91.1 102,101.3 C91.4,110.6 77,115.8 61.6,115.8 C43.54,115.8 24.6,108.45 13.42,92.86 C24.18,110.52 44.42,118.8 63.6,118.8 C79,118.8 93.4,113.6 104,104.3 C115.5,94.1 121.6,79.8 121.6,62.9 C121.6,50.16 118.13,38.84 111.49,29.67 Z" fill="#EB8F00"/>
  <path id="mouth" d="M89,88 L39,88 C36.79,88 35,86.21 35,84 C35,81.79 36.79,80 39,80 L89,80 C91.21,80 93,81.79 93,84 C93,86.21 91.21,88 89,88 Z" fill="#422B0D"/>
  <path d="M44.67,45.94 L44.67,45.94 C40.48,45.94 36.67,49.48 36.67,55.36 C36.67,61.24 40.48,64.77 44.67,64.77 L44.67,64.77 C48.86,64.77 52.67,61.23 52.67,55.36 C52.67,49.49 48.86,45.94 44.67,45.94 Z" fill="#422B0D"/>
  <path d="M44.28,49.87 L44.28,49.87 C42.86,49.19 41.15,49.79 40.46,51.21 C39.93,52.32 40.17,53.65 41.06,54.51 L41.06,54.51 C42.48,55.19 44.19,54.59 44.88,53.17 C45.41,52.06 45.17,50.73 44.28,49.87 Z" fill="#896024"/>
  <path d="M83,45.94 L83,45.94 C78.81,45.94 75,49.48 75,55.36 C75,61.24 78.81,64.77 83,64.77 L83,64.77 C87.19,64.77 91,61.23 91,55.36 C91,49.49 87.21,45.94 83,45.94 Z" fill="#422B0D"/>
  <path d="M82.63,49.87 L82.63,49.87 C81.21,49.19 79.5,49.79 78.81,51.21 C78.28,52.32 78.52,53.65 79.41,54.51 L79.41,54.51 C80.83,55.19 82.54,54.59 83.23,53.17 C83.76,52.06 83.52,50.73 82.63,49.87 Z" fill="#896024"/>
</svg>
